packages/icon/src/svg/people.icon.svg

<svg aria-label="people icon" viewBox="0 0 24 24"><path d="M20.371 19.059A3.483 3.483 0 0021.5 16.5c0-1.93-1.57-3.5-3.5-3.5s-3.5 1.57-3.5 3.5c0 1.013.439 1.918 1.129 2.559C14.151 19.593 13 20.62 13 22h2c0-.598 1.413-1.357 3-1.357s3 .76 3 1.357h2c0-1.38-1.151-2.407-2.629-2.941zM18 15c.827 0 1.5.673 1.5 1.5S18.827 18 18 18s-1.5-.673-1.5-1.5.673-1.5 1.5-1.5zm-9.629 4.059C9.849 19.593 11 20.62 11 22H9c0-.598-1.413-1.357-3-1.357S3 21.402 3 22H1c0-1.38 1.151-2.407 2.629-2.941A3.483 3.483 0 012.5 16.5C2.5 14.57 4.07 13 6 13s3.5 1.57 3.5 3.5a3.483 3.483 0 01-1.129 2.559zM6 15c-.827 0-1.5.673-1.5 1.5S5.173 18 6 18s1.5-.673 1.5-1.5S6.827 15 6 15zm9-4c0-.598-1.413-1.357-3-1.357S9 10.402 9 11H7c0-1.38 1.151-2.407 2.629-2.941A3.481 3.481 0 018.5 5.5C8.5 3.57 10.07 2 12 2s3.5 1.57 3.5 3.5a3.481 3.481 0 01-1.129 2.559C15.849 8.593 17 9.62 17 11h-2zm-3-7c-.827 0-1.5.673-1.5 1.5S11.173 7 12 7s1.5-.673 1.5-1.5S12.827 4 12 4z"/></svg>

<svg width="24" height="24" viewBox="0 0 24 24" fill="none" xmlns="http://www.w3.org/2000/svg">
<path d="M20.371 19.059C21.061 18.418 21.5 17.513 21.5 16.5C21.5 14.57 19.93 13 18 13C16.07 13 14.5 14.57 14.5 16.5C14.5 17.513 14.939 18.418 15.629 19.059C14.151 19.593 13 20.62 13 22H15C15 21.402 16.413 20.643 18 20.643C19.587 20.643 21 21.403 21 22H23C23 20.62 21.849 19.593 20.371 19.059ZM18 15C18.827 15 19.5 15.673 19.5 16.5C19.5 17.327 18.827 18 18 18C17.173 18 16.5 17.327 16.5 16.5C16.5 15.673 17.173 15 18 15ZM8.371 19.059C9.849 19.593 11 20.62 11 22H9C9 21.402 7.587 20.643 6 20.643C4.413 20.643 3 21.402 3 22H1C1 20.62 2.151 19.593 3.629 19.059C2.939 18.418 2.5 17.513 2.5 16.5C2.5 14.57 4.07 13 6 13C7.93 13 9.5 14.57 9.5 16.5C9.5 17.513 9.061 18.418 8.371 19.059ZM6 15C5.173 15 4.5 15.673 4.5 16.5C4.5 17.327 5.173 18 6 18C6.827 18 7.5 17.327 7.5 16.5C7.5 15.673 6.827 15 6 15ZM15 11C15 10.402 13.587 9.643 12 9.643C10.413 9.643 9 10.402 9 11H7C7 9.62 8.151 8.593 9.629 8.059C8.939 7.419 8.5 6.513 8.5 5.5C8.5 3.57 10.07 2 12 2C13.93 2 15.5 3.57 15.5 5.5C15.5 6.513 15.061 7.419 14.371 8.059C15.849 8.593 17 9.62 17 11H15ZM12 4C11.173 4 10.5 4.673 10.5 5.5C10.5 6.327 11.173 7 12 7C12.827 7 13.5 6.327 13.5 5.5C13.5 4.673 12.827 4 12 4Z" fill="white"/>
</svg>
